X:261
T:Gold Ring, The
T:Fainne Oir Ort
R:jig
Z:id:hn-jig-261
M:6/8
K:D
DB,A, DFA|~d3 ecA|BdB AFD|~E3 FDB,|
~A,3 DFA|dfd ecA|~B3 AFA|1 Bdc dAF:|2 Bdc d2B||
|:AFA dfa|bgb afd|~g3 ~f3|ede fdB|
AFA dfa|bgb afd|B/c/dB AFA|1 Bdc d2B:|2 Bdc dfe||
|:dAF AFE|DB,A, DFA|~d3 ede|fdB BAB|
dAF AFE|DB,A, DFA|~d3 ede|1 fdc dfe:|2 fdc d2B||
|:AFA ~d3|~B3 dAF|DEF ~E3|FDB, B,dB|
AFA ~d3|~B3 dAF|DEF ~E3|1 FDC DdB:|2 FDC D2B,||
